Sources/FrostedUI/Resources/Icons.xcassets/folderAdd24.imageset/folder-add-24.svg

<svg width="24" height="24" viewBox="0 0 24 24" fill="none" xmlns="http://www.w3.org/2000/svg" data-fui-icon="true">
  <path
    d="M7.21289 3C7.87117 3 8.48854 3.31936 8.86914 3.85645L10.2295 5.77637C10.3289 5.91662 10.4902 6 10.6621 6H21.2803C22.5061 6.00015 23.4999 6.99387 23.5 8.21973V12.25C23.5 12.6642 23.1642 13 22.75 13C22.3358 13 22 12.6642 22 12.25V8.21973C21.9999 7.8223 21.6777 7.50015 21.2803 7.5H10.6621C10.0038 7.5 9.38646 7.18064 9.00586 6.64355L7.64551 4.72363C7.54614 4.58338 7.38478 4.5 7.21289 4.5H2.71973C2.3223 4.50015 2.00015 4.8223 2 5.21973V18.75C2 19.1642 2.33579 19.5 2.75 19.5H15.25C15.6642 19.5 16 19.8358 16 20.25C16 20.6642 15.6642 21 15.25 21H2.75C1.50736 21 0.5 19.9926 0.5 18.75V5.21973C0.500148 3.99387 1.49387 3.00015 2.71973 3H7.21289ZM20 13C20.4142 13 20.75 13.3358 20.75 13.75V16.25H23.25C23.6642 16.25 24 16.5858 24 17C24 17.4142 23.6642 17.75 23.25 17.75H20.75V20.25C20.75 20.6642 20.4142 21 20 21C19.5858 21 19.25 20.6642 19.25 20.25V17.75H16.75C16.3358 17.75 16 17.4142 16 17C16 16.5858 16.3358 16.25 16.75 16.25H19.25V13.75C19.25 13.3358 19.5858 13 20 13Z"
    fill="currentColor"
  />
</svg>

<svg xmlns="http://www.w3.org/2000/svg" width="24" height="24" fill="none" data-fui-icon="true" viewBox="0 0 24 24"><path fill="currentColor" d="M7.213 3c.658 0 1.276.32 1.656.856l1.36 1.92c.1.14.261.224.433.224H21.28a2.22 2.22 0 0 1 2.22 2.22v4.03a.75.75 0 0 1-1.5 0V8.22a.72.72 0 0 0-.72-.72H10.662a2.03 2.03 0 0 1-1.656-.856l-1.36-1.92a.53.53 0 0 0-.433-.224H2.72a.72.72 0 0 0-.72.72v13.53c0 .414.336.75.75.75h12.5a.75.75 0 0 1 0 1.5H2.75A2.25 2.25 0 0 1 .5 18.75V5.22A2.22 2.22 0 0 1 2.72 3zM20 13a.75.75 0 0 1 .75.75v2.5h2.5a.75.75 0 0 1 0 1.5h-2.5v2.5a.75.75 0 0 1-1.5 0v-2.5h-2.5a.75.75 0 0 1 0-1.5h2.5v-2.5A.75.75 0 0 1 20 13"/></svg>
